6/img/icon-burger-tablet.svg

<svg width="82" height="68" viewBox="0 0 82 68" fill="none" xmlns="http://www.w3.org/2000/svg">
<path d="M76.5286 45.3324H5.36029C2.8336 45.3324 0.833313 47.3034 0.833313 49.57V53.0192C0.833313 55.2858 2.8336 57.1582 5.36029 57.1582H6.41307V58.1437C6.41307 63.5639 11.1506 67.9 16.8356 67.9H65.0532C70.8435 67.9 75.4758 63.4653 75.4758 58.1437V57.1582H76.5286C78.95 57.1582 81.0555 55.2858 81.0555 52.9206V49.4714C81.0555 47.3034 79.0553 45.3324 76.5286 45.3324ZM72.4227 58.1437C72.4227 61.8886 69.1591 64.9436 65.1585 64.9436H16.7304C12.7298 64.9436 9.46615 61.8886 9.46615 58.1437V57.1582H72.4227V58.1437ZM77.8972 52.9206C77.8972 53.6105 77.2655 54.2018 76.5286 54.2018H5.36029C4.62334 54.2018 3.99167 53.6105 3.99167 52.9206V49.4714C3.99167 48.8801 4.62334 48.2889 5.36029 48.2889H76.6338C77.3708 48.2889 78.0025 48.8801 78.0025 49.57V52.9206H77.8972Z" fill="#81B3D2"/>
<path d="M17.8885 37.3496L23.5735 41.2915L29.3639 37.3496L35.1542 41.2915L40.9445 37.3496L46.6295 41.2915L52.4198 37.3496L58.2102 41.2915L64.0005 37.3496L69.7908 41.2915L76.4233 36.6597L74.6336 34.2946L69.7908 37.5467L64.0005 33.6047L58.2102 37.5467L52.4198 33.6047L46.6295 37.5467L40.9445 33.6047L35.1542 37.5467L29.3639 33.6047L23.5735 37.5467L17.8885 33.6047L12.0982 37.5467L7.25536 34.2946L5.36035 36.6597L12.0982 41.2915L17.8885 37.3496Z" fill="#81B3D2"/>
<path d="M75.4757 30.6486C75.4757 30.0573 75.581 28.0864 75.4757 27.6922C74.7388 12.3186 59.5787 0 40.9444 0C22.3101 0 7.04469 12.3186 6.30774 27.6922C6.30774 28.0864 6.30774 30.0573 6.30774 30.6486H75.4757ZM40.9444 2.95646C57.7889 2.95646 71.6857 13.9939 72.3174 27.6922H9.46609C10.203 13.9939 24.0998 2.95646 40.9444 2.95646Z" fill="#81B3D2"/>
<path d="M40.9444 16.7532C42.1073 16.7532 43.05 15.8708 43.05 14.7823C43.05 13.6937 42.1073 12.8113 40.9444 12.8113C39.7816 12.8113 38.8389 13.6937 38.8389 14.7823C38.8389 15.8708 39.7816 16.7532 40.9444 16.7532Z" fill="#81B3D2"/>
<path d="M32.5221 11.924C33.685 11.924 34.6277 11.0416 34.6277 9.95303C34.6277 8.86449 33.685 7.98206 32.5221 7.98206C31.3593 7.98206 30.4166 8.86449 30.4166 9.95303C30.4166 11.0416 31.3593 11.924 32.5221 11.924Z" fill="#81B3D2"/>
<path d="M49.3667 11.924C50.5296 11.924 51.4723 11.0416 51.4723 9.95303C51.4723 8.86449 50.5296 7.98206 49.3667 7.98206C48.2039 7.98206 47.2612 8.86449 47.2612 9.95303C47.2612 11.0416 48.2039 11.924 49.3667 11.924Z" fill="#81B3D2"/>
</svg>

<svg width="82" height="68" fill="none" xmlns="http://www.w3.org/2000/svg"><path d="M76.529 45.332H5.36c-2.526 0-4.527 1.971-4.527 4.238v3.45c0 2.266 2 4.138 4.527 4.138h1.053v.986c0 5.42 4.738 9.756 10.423 9.756h48.217c5.79 0 10.423-4.435 10.423-9.756v-.986h1.053c2.421 0 4.526-1.872 4.526-4.237v-3.45c0-2.168-2-4.139-4.526-4.139Zm-4.106 12.812c0 3.745-3.264 6.8-7.264 6.8H16.73c-4 0-7.264-3.055-7.264-6.8v-.986h62.957v.986Zm5.474-5.223c0 .69-.632 1.28-1.368 1.28H5.36c-.737 0-1.368-.59-1.368-1.28v-3.45c0-.59.631-1.182 1.368-1.182h71.274c.737 0 1.368.591 1.368 1.281v3.35h-.105ZM17.889 37.35l5.684 3.941 5.79-3.941 5.791 3.941 5.79-3.941 5.685 3.941 5.79-3.941 5.791 3.941L64 37.35l5.79 3.941 6.633-4.631-1.79-2.365-4.842 3.252L64 33.605l-5.79 3.942-5.791-3.942-5.79 3.942-5.686-3.942-5.79 3.942-5.79-3.942-5.79 3.942-5.686-3.942-5.79 3.942-4.843-3.252L5.36 36.66l6.738 4.632 5.79-3.942ZM75.476 30.649c0-.592.105-2.563 0-2.957C74.739 12.32 59.579 0 40.944 0 22.31 0 7.044 12.319 6.308 27.692v2.957h69.168ZM40.944 2.956c16.845 0 30.742 11.038 31.373 24.736H9.467C10.202 13.994 24.1 2.956 40.943 2.956Z" fill="#81B3D2"/><path d="M40.944 16.753c1.163 0 2.106-.882 2.106-1.97 0-1.09-.943-1.972-2.106-1.972-1.162 0-2.105.883-2.105 1.971 0 1.089.943 1.971 2.105 1.971ZM32.522 11.924c1.163 0 2.106-.882 2.106-1.971s-.943-1.97-2.106-1.97c-1.163 0-2.105.881-2.105 1.97s.942 1.971 2.105 1.971ZM49.367 11.924c1.163 0 2.105-.882 2.105-1.971s-.942-1.97-2.105-1.97-2.106.881-2.106 1.97.943 1.971 2.106 1.971Z" fill="#81B3D2"/></svg>
